X: 22
T: No_11_Song_of_the_War_Messenger.krn
%%abc-version 2.0
%%abcx-abcm2ps-target-version 5.9.1 (29 Sep 2008)
%%abc-creator hum2abc beta
%%abcx-conversion-date 2020/08/10 18:54:57
%%gracespace 0 6 6
%%humdrum-veritas 935260438
%%humdrum-veritas-data 3218602342
%%linebreak <none>
%%barnumbers 0
L: 1/8
M: 2/4
%%staves {1 2}
V: 1 clef=bass
V: 2 clef=bass
K: Eb
[V:1] E/ [I:setbarnb 1]| 
[V:2] z/ | 
[V:1] F>F F3/E/ | 
[V:2] (3!accent!G,,G,, z (3!accent!G,,G,, z | 
[V:1] E<CC2 ||  
[V:2] (3!accent!G,,G,, z (3!accent!G,,G,, z ||  
[V:1] [M:3/4]CC/C/C2C3/C/ ||  
[V:2] [M:3/4]z6 ||  
[V:1] [M:2/4]E7/E/ | 
[V:2] [M:2/4]z4 | 
[V:1] E>E E3/E/ | 
[V:2] z4 | 
[V:1] E<CC2 ||  
[V:2] z4 ||  
[V:1] [M:3/4]CC/C/C2C3/C/ ||  
[V:2] [M:3/4]z6 ||  
[V:1] [M:2/4]C7/C/ | 
[V:2] [M:2/4]z4 | 
[V:1] F,>F, F,3/F,/ | 
[V:2] z4 | 
[V:1] F,<E,E,2 ||  
[V:2] z4 ||  
[V:1] [M:3/4]C,C,/C,/C,2C,3/C,/ ||  
[V:2] [M:3/4]z6 ||  
[V:1] [M:2/4]E,7/E,/ | 
[V:2] [M:2/4]z4 | 
[V:1] F,>F, F,3/E,/ | 
[V:2] z4 | 
[V:1] E,<C,C,2 ||  
[V:2] z4 ||  
[V:1] [M:3/4]C,C,/C,/C,2C,3/C,/ ||  
[V:2] [M:3/4]z6 ||  
[V:1] [M:2/4]C,4 |]  
[V:2] [M:2/4]z4 |]  


